icons/svg/shields_big/h_topo_tree_broadleaved_shield.svg

<?xml version="1.0" encoding="UTF-8" standalone="no"?>
<!-- Created with Inkscape (http://www.inkscape.org/) -->

<svg
   xmlns:dc="http://purl.org/dc/elements/1.1/"
   xmlns:cc="http://creativecommons.org/ns#"
   xmlns:rdf="http://www.w3.org/1999/02/22-rdf-syntax-ns#"
   xmlns:svg="http://www.w3.org/2000/svg"
   xmlns="http://www.w3.org/2000/svg"
   xmlns:sodipodi="http://sodipodi.sourceforge.net/DTD/sodipodi-0.dtd"
   xmlns:inkscape="http://www.inkscape.org/namespaces/inkscape"
   version="1.0"
   width="32"
   height="32"
   id="svg2"
   sodipodi:version="0.32"
   inkscape:version="0.91 r"
   sodipodi:docname="h_topo_tree_broadleaved_shield.svg"
   inkscape:output_extension="org.inkscape.output.svg.inkscape">
  <metadata
     id="metadata10">
    <rdf:RDF>
      <cc:Work
         rdf:about="">
        <dc:format>image/svg+xml</dc:format>
        <dc:type
           rdf:resource="http://purl.org/dc/dcmitype/StillImage" />
        <cc:license
           rdf:resource="http://web.resource.org/cc/PublicDomain" />
        <dc:language>en</dc:language>
        <dc:title />
      </cc:Work>
    </rdf:RDF>
  </metadata>
  <sodipodi:namedview
     inkscape:window-height="1006"
     inkscape:window-width="1920"
     inkscape:pageshadow="2"
     inkscape:pageopacity="0.0"
     guidetolerance="10.0"
     gridtolerance="10.0"
     objecttolerance="10.0"
     borderopacity="1.0"
     bordercolor="#666666"
     pagecolor="#ffffff"
     id="base"
     showgrid="false"
     inkscape:zoom="23.997436"
     inkscape:cx="11.822899"
     inkscape:cy="19.683638"
     inkscape:window-x="1920"
     inkscape:window-y="0"
     inkscape:current-layer="svg2"
     inkscape:window-maximized="1"
     showguides="true"
     inkscape:guide-bbox="true" />
  <defs
     id="defs4">
    <inkscape:perspective
       sodipodi:type="inkscape:persp3d"
       inkscape:vp_x="0 : 290 : 1"
       inkscape:vp_y="0 : 1000 : 0"
       inkscape:vp_z="580 : 290 : 1"
       inkscape:persp3d-origin="290 : 193.33333 : 1"
       id="perspective12" />
    <style
       type="text/css"
       id="style6">
   
    .fil0 {fill:#EF7900}
   
  </style>
    <inkscape:perspective
       id="perspective6807"
       inkscape:persp3d-origin="29.116032 : 19.410688 : 1"
       inkscape:vp_z="58.232063 : 29.116032 : 1"
       inkscape:vp_y="0 : 1000 : 0"
       inkscape:vp_x="0 : 29.116032 : 1"
       sodipodi:type="inkscape:persp3d" />
    <inkscape:perspective
       id="perspective6954"
       inkscape:persp3d-origin="290 : 193.33333 : 1"
       inkscape:vp_z="580 : 290 : 1"
       inkscape:vp_y="0 : 1000 : 0"
       inkscape:vp_x="0 : 290 : 1"
       sodipodi:type="inkscape:persp3d" />
    <inkscape:perspective
       id="perspective2541"
       inkscape:persp3d-origin="240 : 160 : 1"
       inkscape:vp_z="480 : 240 : 1"
       inkscape:vp_y="0 : 1000 : 0"
       inkscape:vp_x="0 : 240 : 1"
       sodipodi:type="inkscape:persp3d" />
    <inkscape:perspective
       id="perspective2750"
       inkscape:persp3d-origin="215 : 143.33333 : 1"
       inkscape:vp_z="430 : 215 : 1"
       inkscape:vp_y="0 : 1000 : 0"
       inkscape:vp_x="0 : 215 : 1"
       sodipodi:type="inkscape:persp3d" />
    <inkscape:perspective
       id="perspective3730"
       inkscape:persp3d-origin="88.929146 : 101.19778 : 1"
       inkscape:vp_z="177.85829 : 151.79668 : 1"
       inkscape:vp_y="0 : 1000 : 0"
       inkscape:vp_x="0 : 151.79668 : 1"
       sodipodi:type="inkscape:persp3d" />
    <marker
       inkscape:stockid="TriangleInM"
       orient="auto"
       refY="0"
       refX="0"
       id="TriangleInM-3"
       style="overflow:visible"
       inkscape:isstock="true">
      <path
         inkscape:connector-curvature="0"
         id="path4303-6"
         d="m 5.77,0 -8.65,5 0,-10 8.65,5 z"
         style="fill:#ffffff;fill-opacity:1;fill-rule:evenodd;stroke:#ffffff;stroke-width:1pt;stroke-opacity:1"
         transform="scale(-0.4,-0.4)" />
    </marker>
    <marker
       inkscape:stockid="TriangleOutM"
       orient="auto"
       refY="0"
       refX="0"
       id="TriangleOutM-7"
       style="overflow:visible"
       inkscape:isstock="true">
      <path
         inkscape:connector-curvature="0"
         id="path4312-5"
         d="m 5.77,0 -8.65,5 0,-10 8.65,5 z"
         style="fill:#ffffff;fill-opacity:1;fill-rule:evenodd;stroke:#ffffff;stroke-width:1pt;stroke-opacity:1"
         transform="scale(0.4,0.4)" />
    </marker>
    <marker
       inkscape:stockid="TriangleInM"
       orient="auto"
       refY="0"
       refX="0"
       id="TriangleInM"
       style="overflow:visible"
       inkscape:isstock="true">
      <path
         inkscape:connector-curvature="0"
         id="path4303"
         d="m 5.77,0 -8.65,5 0,-10 8.65,5 z"
         style="fill:#ffffff;fill-opacity:1;fill-rule:evenodd;stroke:#ffffff;stroke-width:1pt;stroke-opacity:1"
         transform="scale(-0.4,-0.4)" />
    </marker>
    <marker
       inkscape:stockid="TriangleOutM"
       orient="auto"
       refY="0"
       refX="0"
       id="TriangleOutM"
       style="overflow:visible"
       inkscape:isstock="true">
      <path
         inkscape:connector-curvature="0"
         id="path4312"
         d="m 5.77,0 -8.65,5 0,-10 8.65,5 z"
         style="fill:#ffffff;fill-opacity:1;fill-rule:evenodd;stroke:#ffffff;stroke-width:1pt;stroke-opacity:1"
         transform="scale(0.4,0.4)" />
    </marker>
    <marker
       inkscape:stockid="TriangleInM"
       orient="auto"
       refY="0"
       refX="0"
       id="TriangleInM-3-3"
       style="overflow:visible"
       inkscape:isstock="true">
      <path
         inkscape:connector-curvature="0"
         id="path4303-6-6"
         d="m 5.77,0 -8.65,5 0,-10 8.65,5 z"
         style="fill:#ffffff;fill-opacity:1;fill-rule:evenodd;stroke:#ffffff;stroke-width:1pt;stroke-opacity:1"
         transform="scale(-0.4,-0.4)" />
    </marker>
    <marker
       inkscape:stockid="TriangleOutM"
       orient="auto"
       refY="0"
       refX="0"
       id="TriangleOutM-7-7"
       style="overflow:visible"
       inkscape:isstock="true">
      <path
         inkscape:connector-curvature="0"
         id="path4312-5-5"
         d="m 5.77,0 -8.65,5 0,-10 8.65,5 z"
         style="fill:#ffffff;fill-opacity:1;fill-rule:evenodd;stroke:#ffffff;stroke-width:1pt;stroke-opacity:1"
         transform="scale(0.4,0.4)" />
    </marker>
    <marker
       inkscape:stockid="TriangleInM"
       orient="auto"
       refY="0"
       refX="0"
       id="TriangleInM-3-5"
       style="overflow:visible"
       inkscape:isstock="true">
      <path
         inkscape:connector-curvature="0"
         id="path4303-6-62"
         d="m 5.77,0 -8.65,5 0,-10 8.65,5 z"
         style="fill:#ffffff;fill-opacity:1;fill-rule:evenodd;stroke:#ffffff;stroke-width:1pt;stroke-opacity:1"
         transform="scale(-0.4,-0.4)" />
    </marker>
    <marker
       inkscape:stockid="TriangleOutM"
       orient="auto"
       refY="0"
       refX="0"
       id="TriangleOutM-7-9"
       style="overflow:visible"
       inkscape:isstock="true">
      <path
         inkscape:connector-curvature="0"
         id="path4312-5-1"
         d="m 5.77,0 -8.65,5 0,-10 8.65,5 z"
         style="fill:#ffffff;fill-opacity:1;fill-rule:evenodd;stroke:#ffffff;stroke-width:1pt;stroke-opacity:1"
         transform="scale(0.4,0.4)" />
    </marker>
    <marker
       inkscape:stockid="TriangleInM"
       orient="auto"
       refY="0"
       refX="0"
       id="TriangleInM-3-0"
       style="overflow:visible"
       inkscape:isstock="true">
      <path
         inkscape:connector-curvature="0"
         id="path4303-6-9"
         d="m 5.77,0 -8.65,5 0,-10 8.65,5 z"
         style="fill:#ffffff;fill-opacity:1;fill-rule:evenodd;stroke:#ffffff;stroke-width:1pt;stroke-opacity:1"
         transform="scale(-0.4,-0.4)" />
    </marker>
    <marker
       inkscape:stockid="TriangleOutM"
       orient="auto"
       refY="0"
       refX="0"
       id="TriangleOutM-7-3"
       style="overflow:visible"
       inkscape:isstock="true">
      <path
         inkscape:connector-curvature="0"
         id="path4312-5-6"
         d="m 5.77,0 -8.65,5 0,-10 8.65,5 z"
         style="fill:#ffffff;fill-opacity:1;fill-rule:evenodd;stroke:#ffffff;stroke-width:1pt;stroke-opacity:1"
         transform="scale(0.4,0.4)" />
    </marker>
    <marker
       inkscape:stockid="TriangleInM"
       orient="auto"
       refY="0"
       refX="0"
       id="TriangleInM-0"
       style="overflow:visible"
       inkscape:isstock="true">
      <path
         inkscape:connector-curvature="0"
         id="path4303-62"
         d="m 5.77,0 -8.65,5 0,-10 8.65,5 z"
         style="fill:#ffffff;fill-opacity:1;fill-rule:evenodd;stroke:#ffffff;stroke-width:1pt;stroke-opacity:1"
         transform="scale(-0.4,-0.4)" />
    </marker>
    <marker
       inkscape:stockid="TriangleOutM"
       orient="auto"
       refY="0"
       refX="0"
       id="TriangleOutM-6"
       style="overflow:visible"
       inkscape:isstock="true">
      <path
         inkscape:connector-curvature="0"
         id="path4312-1"
         d="m 5.77,0 -8.65,5 0,-10 8.65,5 z"
         style="fill:#ffffff;fill-opacity:1;fill-rule:evenodd;stroke:#ffffff;stroke-width:1pt;stroke-opacity:1"
         transform="scale(0.4,0.4)" />
    </marker>
    <marker
       inkscape:stockid="TriangleInM"
       orient="auto"
       refY="0"
       refX="0"
       id="TriangleInM-3-0-8"
       style="overflow:visible"
       inkscape:isstock="true">
      <path
         inkscape:connector-curvature="0"
         id="path4303-6-9-7"
         d="m 5.77,0 -8.65,5 0,-10 8.65,5 z"
         style="fill:#ffffff;fill-opacity:1;fill-rule:evenodd;stroke:#ffffff;stroke-width:1pt;stroke-opacity:1"
         transform="scale(-0.4,-0.4)" />
    </marker>
    <marker
       inkscape:stockid="TriangleOutM"
       orient="auto"
       refY="0"
       refX="0"
       id="TriangleOutM-7-3-9"
       style="overflow:visible"
       inkscape:isstock="true">
      <path
         inkscape:connector-curvature="0"
         id="path4312-5-6-2"
         d="m 5.77,0 -8.65,5 0,-10 8.65,5 z"
         style="fill:#ffffff;fill-opacity:1;fill-rule:evenodd;stroke:#ffffff;stroke-width:1pt;stroke-opacity:1"
         transform="scale(0.4,0.4)" />
    </marker>
  </defs>
  <path
     sodipodi:type="inkscape:offset"
     inkscape:radius="1.2918047"
     inkscape:original="M 16.064453 2.7226562 C 15.905373 2.7254062 15.755195 2.7965792 15.652344 2.9179688 C 14.82557 3.1581832 14.196029 3.8828671 14.195312 4.8203125 L 14.195312 4.8222656 C 14.195586 5.0173553 14.296488 5.1869336 14.34375 5.3730469 C 13.479646 5.6510238 12.817093 6.4106309 12.816406 7.4101562 C 12.816355 7.7582762 13.011643 8.0481718 13.146484 8.359375 C 12.213615 8.7073459 11.490734 9.538727 11.490234 10.652344 C 11.489922 12.035899 12.471566 13.250396 13.783203 13.25 C 14.42954 13.249194 15.476868 13.241501 15.996094 13.238281 L 15.996094 16.003906 L 20.970703 16.003906 L 20.970703 14.898438 L 17.101562 14.898438 L 17.101562 13.238281 C 17.632772 13.241581 18.661357 13.24912 19.304688 13.25 C 20.6157 13.250396 21.597034 12.037032 21.597656 10.654297 C 21.597902 9.5398945 20.874759 8.7076253 19.941406 8.359375 C 20.076248 8.0481718 20.271536 7.758276 20.271484 7.4101562 C 20.270798 6.4106308 19.608245 5.6510238 18.744141 5.3730469 C 18.791401 5.1869426 18.892305 5.0173751 18.892578 4.8222656 L 18.892578 4.8203125 C 18.891733 3.7121282 18.100958 2.7220334 17.023438 2.7226562 C 16.728106 2.7229515 16.655344 2.725366 16.544922 2.734375 C 16.436296 2.725395 16.358638 2.7228223 16.076172 2.7226562 L 16.066406 2.7226562 L 16.064453 2.7226562 z "
     style="color:#000000;font-style:normal;font-variant:normal;font-weight:normal;font-stretch:normal;font-size:medium;line-height:normal;font-family:sans-serif;text-indent:0;text-align:start;text-decoration:none;text-decoration-line:none;text-decoration-style:solid;text-decoration-color:#000000;letter-spacing:normal;word-spacing:normal;text-transform:none;direction:ltr;block-progression:tb;writing-mode:lr-tb;baseline-shift:baseline;text-anchor:start;white-space:normal;clip-rule:nonzero;display:inline;overflow:visible;visibility:visible;opacity:1;isolation:auto;mix-blend-mode:normal;color-interpolation:sRGB;color-interpolation-filters:linearRGB;solid-color:#000000;solid-opacity:1;fill:#ffffff;fill-opacity:1;fill-rule:nonzero;stroke:none;stroke-width:1.10500002;stroke-linecap:butt;stroke-linejoin:miter;stroke-miterlimit:4;stroke-dasharray:none;stroke-dashoffset:0;stroke-opacity:1;marker:none;color-rendering:auto;image-rendering:auto;shape-rendering:auto;text-rendering:auto;enable-background:accumulate"
     id="path4353"
     d="m 16.042969,1.4316406 c -0.493359,0.00853 -0.942225,0.2507709 -1.28125,0.6054688 -1.032021,0.5391249 -1.856445,1.5033769 -1.857422,2.78125 a 1.2919339,1.2919339 0 0 0 0,0.00195 l 0,0.00195 a 1.2919339,1.2919339 0 0 0 0,0.00195 c 4.8e-5,0.034509 0.0086,0.014428 0.0098,0.046875 -0.773933,0.6186889 -1.387918,1.443323 -1.388671,2.5390624 -4.2e-5,0.2850967 0.089,0.2997771 0.148437,0.5019532 -0.817875,0.6682621 -1.474077,1.5537487 -1.474609,2.7402346 -4.5e-4,1.994756 1.47473,3.889308 3.583984,3.888672 a 1.2919339,1.2919339 0 0 0 0.002,0 c 0.271507,-3.39e-4 0.579258,-0.002 0.919922,-0.0039 l 0,1.466797 a 1.2919339,1.2919339 0 0 0 1.291016,1.291016 l 4.974609,0 a 1.2919339,1.2919339 0 0 0 1.291016,-1.291016 l 0,-1.105468 a 1.2919339,1.2919339 0 0 0 -0.828125,-1.205079 c 0.880559,-0.73671 1.45454,-1.842905 1.455078,-3.039062 2.62e-4,-1.1878176 -0.65579,-2.073333 -1.47461,-2.7421876 0.05944,-0.2021769 0.148481,-0.2168558 0.148438,-0.5019532 -7.52e-4,-1.0957399 -0.614738,-1.9203732 -1.388672,-2.5390624 0.0012,-0.032446 0.0097,-0.012367 0.0098,-0.046875 a 1.2919339,1.2919339 0 0 0 0,-0.00195 l 0,-0.00195 a 1.2919339,1.2919339 0 0 0 0,-0.00195 c -0.0013,-1.722132 -1.290943,-3.3877992 -3.160156,-3.3867188 a 1.2919339,1.2919339 0 0 0 -0.002,0 c -0.247419,2.474e-4 -0.35827,0.00641 -0.476562,0.013672 -0.119112,-0.00734 -0.231864,-0.013533 -0.46875,-0.013672 l -0.0098,0 -0.002,0 a 1.2919339,1.2919339 0 0 0 -0.02148,0 z" />
</svg>

<svg width="32" height="32" viewBox="0 0 32 32" fill="none" xmlns="http://www.w3.org/2000/svg">
<path d="M16.043 1.43165C15.5496 1.44018 15.1007 1.68242 14.7617 2.03712C13.7297 2.57624 12.9053 3.54049 12.9043 4.81837C12.9043 4.81902 12.9043 4.81967 12.9043 4.82032V4.82227C12.9043 4.82292 12.9043 4.82357 12.9043 4.82422C12.9043 4.85873 12.9129 4.83864 12.9141 4.87109C12.1402 5.48978 11.5262 6.31441 11.5254 7.41015C11.5254 7.69525 11.6144 7.70993 11.6739 7.91211C10.856 8.58037 10.1998 9.46586 10.1993 10.6523C10.1988 12.6471 11.674 14.5416 13.7832 14.541C13.7839 14.541 13.7846 14.541 13.7852 14.541C14.0567 14.5407 14.3645 14.539 14.7052 14.5371V16.0039C14.7054 16.3462 14.8415 16.6745 15.0836 16.9165C15.3256 17.1586 15.6539 17.2947 15.9962 17.2949H20.9708C21.3131 17.2947 21.6413 17.1586 21.8834 16.9165C22.1255 16.6745 22.2616 16.3462 22.2618 16.0039V14.8984C22.2617 14.6374 22.1825 14.3826 22.0346 14.1675C21.8868 13.9524 21.6773 13.7871 21.4337 13.6934C22.3142 12.9567 22.8882 11.8505 22.8888 10.6543C22.889 9.46648 22.233 8.58097 21.4141 7.91211C21.4736 7.70994 21.5626 7.69526 21.5626 7.41016C21.5618 6.31442 20.9478 5.48979 20.1739 4.8711C20.1751 4.83865 20.1836 4.85873 20.1837 4.82422C20.1837 4.82357 20.1837 4.82292 20.1837 4.82227V4.82032C20.1837 4.81967 20.1837 4.81902 20.1837 4.81837C20.1824 3.09624 18.8928 1.43057 17.0236 1.43165C17.0229 1.43165 17.0222 1.43165 17.0216 1.43165C16.7741 1.4319 16.6633 1.43806 16.545 1.44533C16.4259 1.43799 16.3131 1.43179 16.0762 1.43165H16.0664H16.0644C16.0573 1.4316 16.0501 1.4316 16.043 1.43165L16.043 1.43165Z" fill="white"/>
</svg>
